X: 320
T: Bulgareasca "Vintul"
R: bulgar
Q: 1/4=160
B: German Goldenshteyn "Shpilt klezmorimlach klingen zoln di gesalach" New York 2003 v.3 #20
Z: 2012 John Chambers <jc:trillian.mit.edu>
M: 2/4
L: 1/8
K: Em
|:\
E2 G2 | B2 e2 | g4- | g4 | (f>g ag) | (fe ^de) | f4- | f4 |
B3 ^d | f3 e | ^d4- | ^d(B {=d}cB) | fe^dc | BAGF |\
[1 E3 B | (3(BAG) (3(GFE) :|[2 E4- | E(Bc^c) ||
|: (3(d^cd) g>f | edcB | c c2 B | A4 | (3(A^GA) f>e | (3(ded) (3(cBA) | B4- | Bz "_>"B2 |
(Bc^de) | (fgfe) | ^d4- | dB{d}cB | (fe^dc) | (BAGF) | E4- |[1 E (Bc^c) :|[2 E BGF ||
|: E3 F | G3 A | B3 G | E4 | (c3 B) | (Ac ec) | B4- | B4 |
{ab}c'b az | {AB}cB Az | {^de}fe dz | {^DE}FE Dz |\
(FGAB) | (3(BAG)  (3(GFE) | E4- |[1 E BGF :|[2 Ez ez |]
